svg/black/steem.svg

<svg xmlns="http://www.w3.org/2000/svg" width="32" height="32" viewBox="0 0 32 32">
  <path fill-rule="evenodd" d="M16,32 C7.163444,32 0,24.836556 0,16 C0,7.163444 7.163444,0 16,0 C24.836556,0 32,7.163444 32,16 C32,24.836556 24.836556,32 16,32 Z M15.9789778,6.08978723 C15.7332444,5.96510638 12.6109111,8.58468085 12.6109111,10.5161702 C12.6075333,13.1527659 16.2525778,19.1268085 16.8660667,21.4353192 C17.3938444,23.4170213 15.9705333,25.7957447 16.3598222,25.9021277 C16.7195556,26.1344681 20.1184444,22.6374468 20.2522889,21.1429787 C20.4237111,18.7676596 16.2804444,11.8395745 15.9506889,10.0476596 C15.5681556,7.96468085 16.2525778,6.13617021 15.9789778,6.08978723 Z M9.86984444,8.22893617 C9.67688889,8.13106383 7.22926667,10.187234 7.22926667,11.7 C7.22588889,13.7676596 10.0843333,18.4519149 10.5656667,20.2638298 C10.9798667,21.8178723 9.86308889,23.6829787 10.1700444,23.7676596 C10.4504,23.9506383 13.1171556,21.2059574 13.2210222,20.0357447 C13.3548667,18.1723404 10.1071333,12.7387234 9.84831111,11.3357447 C9.54811111,9.69829787 10.0860222,8.26553192 9.86984444,8.22893617 Z M22.2840222,8.22893617 C22.0927556,8.13106383 19.6434444,10.187234 19.6434444,11.7 C19.6404889,13.7676596 22.4985111,18.4519149 22.9802667,20.2638298 C23.3940444,21.8178723 22.2776889,23.6829787 22.5842222,23.7676596 C22.8662667,23.9506383 25.5334444,21.2059574 25.6356222,20.0357447 C25.7690444,18.1723404 22.5217333,12.7387234 22.2624889,11.3357447 C21.9627111,9.69829787 22.5002,8.26553192 22.2840222,8.22893617 Z"/>
</svg>

<svg xmlns="http://www.w3.org/2000/svg" width="32" height="32"><path fill-rule="evenodd" d="M16 32C7.163 32 0 24.837 0 16S7.163 0 16 0s16 7.163 16 16-7.163 16-16 16zm-.021-25.91c-.246-.125-3.368 2.495-3.368 4.426-.003 2.637 3.642 8.61 4.255 10.92.528 1.981-.895 4.36-.506 4.466.36.232 3.758-3.265 3.892-4.759.172-2.375-3.972-9.303-4.301-11.095-.383-2.083.302-3.912.028-3.958zm-6.11 2.139c-.192-.098-2.64 1.958-2.64 3.471-.003 2.068 2.855 6.752 3.337 8.564.414 1.554-.703 3.419-.396 3.504.28.183 2.947-2.562 3.051-3.732.134-1.864-3.114-7.297-3.373-8.7-.3-1.638.238-3.07.022-3.107zm12.415 0c-.191-.098-2.64 1.958-2.64 3.471-.004 2.068 2.855 6.752 3.336 8.564.414 1.554-.702 3.419-.396 3.504.282.183 2.95-2.562 3.052-3.732.133-1.864-3.114-7.297-3.374-8.7-.3-1.638.238-3.07.022-3.107z"/></svg>
